X: 2
T: The Rose In The Heather
R: jig
M: 6/8
L: 1/8
K: Dmaj
|:D2F EDB,|DFA BAF|ABd e/f/ge|fdB AFE|FAF EFE|DFA ABd|edB AFE|1EDC D2A,:|2EDC Deg|:fdB ABd|faa afd|~g3 fed|Bcd efg|fdB ABd|faa afa|baf gfe|1fdc d2e:|2fdB AFE|


Tune 447	Setting 13312

